assets/misc-grey/MiscGrey45.svg

<svg width="50" height="39" viewBox="0 0 50 39" fill="none" xmlns="http://www.w3.org/2000/svg">
<path fill-rule="evenodd" clip-rule="evenodd" d="M17.441 3.40997C20.715 3.40997 23.378 6.06997 23.378 9.33997C23.378 12.62 20.715 15.28 17.441 15.28C14.167 15.28 11.503 12.62 11.503 9.33997C11.503 6.06997 14.167 3.40997 17.441 3.40997ZM17.441 18.28C22.369 18.28 26.378 14.27 26.378 9.33997C26.378 4.41997 22.369 0.409973 17.441 0.409973C12.513 0.409973 8.50305 4.41997 8.50305 9.33997C8.50305 14.27 12.513 18.28 17.441 18.28ZM35.699 3.89997C38.06 3.89997 39.98 5.81997 39.98 8.17997C39.98 10.54 38.06 12.46 35.699 12.46C33.3391 12.46 31.419 10.54 31.419 8.17997C31.419 5.81997 33.3391 3.89997 35.699 3.89997ZM35.699 15.46C39.7141 15.46 42.98 12.2 42.98 8.17997C42.98 4.16997 39.7141 0.899973 35.699 0.899973C31.685 0.899973 28.419 4.16997 28.419 8.17997C28.419 12.2 31.685 15.46 35.699 15.46ZM46.375 28.54H34.607V28.48C34.607 24.41 31.812 20.1 26.629 20.1C26.556 20.1 26.474 20.1 26.397 20.1C26.917 19.61 27.589 19.26 28.414 19.26C28.983 19.26 30.737 19.25 32.884 19.24C36.261 19.22 40.612 19.2 42.841 19.2C45.637 19.2 46.375 21.72 46.375 23.05V28.54ZM31.607 35.97H3.27405V29.01C3.27405 27.26 3.96305 25.53 5.11705 24.4C5.70705 23.82 6.70805 23.1 8.06605 23.17C8.81805 23.15 11.198 23.16 14.08 23.14C18.386 23.12 23.819 23.1 26.629 23.1C30.05 23.1 31.607 25.89 31.607 28.48V35.97ZM42.841 16.2C40.6091 16.2 36.251 16.22 32.869 16.24C30.729 16.25 28.981 16.26 28.443 16.26C28.406 16.26 28.369 16.26 28.333 16.26C25.979 16.26 23.881 17.74 22.783 20.1C20.075 20.11 16.838 20.13 14.065 20.14C11.205 20.16 8.84205 20.17 8.10605 20.17C8.10305 20.17 8.10005 20.17 8.09705 20.17C6.22205 20.11 4.43105 20.87 3.01705 22.26C1.29905 23.94 0.274048 26.47 0.274048 29.01V37.47C0.274048 38.3 0.945048 38.97 1.77405 38.97H33.107C33.936 38.97 34.607 38.3 34.607 37.47V31.54H47.875C48.704 31.54 49.375 30.87 49.375 30.04V23.05C49.375 19.73 47.085 16.2 42.841 16.2Z" fill="#1A1919"/>
</svg>

<svg xmlns="http://www.w3.org/2000/svg" viewBox="0 0 50 39"><path fill-rule="evenodd" d="M17.441 3.41c3.274 0 5.937 2.66 5.937 5.93 0 3.28-2.663 5.94-5.937 5.94a5.943 5.943 0 01-5.938-5.94c0-3.27 2.664-5.93 5.938-5.93zm0 14.87c4.928 0 8.937-4.01 8.937-8.94 0-4.92-4.009-8.93-8.937-8.93-4.928 0-8.938 4.01-8.938 8.93 0 4.93 4.01 8.94 8.938 8.94zM35.699 3.9a4.285 4.285 0 014.281 4.28c0 2.36-1.92 4.28-4.281 4.28-2.36 0-4.28-1.92-4.28-4.28 0-2.36 1.92-4.28 4.28-4.28zm0 11.56a7.285 7.285 0 007.281-7.28c0-4.01-3.266-7.28-7.281-7.28-4.014 0-7.28 3.27-7.28 7.28 0 4.02 3.266 7.28 7.28 7.28zm10.676 13.08H34.607v-.06c0-4.07-2.795-8.38-7.978-8.38h-.232c.52-.49 1.192-.84 2.017-.84.569 0 2.323-.01 4.47-.02 3.377-.02 7.728-.04 9.957-.04 2.796 0 3.534 2.52 3.534 3.85v5.49zm-14.768 7.43H3.274v-6.96c0-1.75.689-3.48 1.843-4.61.59-.58 1.591-1.3 2.95-1.23.751-.02 3.131-.01 6.013-.03 4.306-.02 9.739-.04 12.549-.04 3.421 0 4.978 2.79 4.978 5.38v7.49zM42.841 16.2c-2.232 0-6.59.02-9.972.04-2.14.01-3.888.02-4.426.02h-.11c-2.354 0-4.452 1.48-5.55 3.84-2.708.01-5.945.03-8.718.04-2.86.02-5.223.03-5.959.03h-.009c-1.875-.06-3.666.7-5.08 2.09C1.299 23.94.274 26.47.274 29.01v8.46c0 .83.671 1.5 1.5 1.5h31.333c.829 0 1.5-.67 1.5-1.5v-5.93h13.268c.829 0 1.5-.67 1.5-1.5v-6.99c0-3.32-2.29-6.85-6.534-6.85z" clip-rule="evenodd"/></svg>
